dist/img/upload.svg

<svg width="30px" height="30px" viewBox="0 0 30 30" version="1.1" xmlns="http://www.w3.org/2000/svg" xmlns:xlink="http://www.w3.org/1999/xlink">
    <defs>
        <linearGradient x1="0%" y1="100%" x2="100%" y2="0%" id="linearGradient-1">
            <stop stop-color="#6673B4" offset="0%"></stop>
            <stop stop-color="#9EAEFF" offset="100%"></stop>
        </linearGradient>
    </defs>
    <g id="Symbols" stroke="none" stroke-width="1" fill="none" fill-rule="evenodd">
        <g id="ic-btn-upd" fill="url(#linearGradient-1)">
            <path d="M15,30 C6.71572875,30 0,23.2842712 0,15 C0,6.71572875 6.71572875,0 15,0 C23.2842712,0 30,6.71572875 30,15 C30,23.2842712 23.2842712,30 15,30 Z M6.22545858,18.6225828 C5.68005826,17.4370634 4.87069124,18.1287458 5.0175033,18.6224728 C6.70390639,22.9786516 10.5733867,26 15.0772605,26 C19.5717776,26 23.4345344,22.9659964 25.126479,18.6243046 C25.2670129,18.2527541 25.0056476,17.8835658 24.6605403,17.8959892 C24.4594559,17.903228 19.3821029,18.8238227 19.3821029,18.8238227 C19.0034699,18.9400347 18.9547041,19.3407727 19.0034699,19.4926122 C19.0304651,19.6728042 19.2095861,19.9503219 19.5815256,19.9503219 C19.5815256,19.9503219 20.926993,19.716589 23.6179277,19.2491232 C23.6050678,19.2739425 23.5954001,19.2925384 23.5889247,19.3049109 C21.8438965,22.6391074 18.6348541,24.7704121 15.0772605,24.7704121 C11.2662224,24.7704121 7.86557226,22.3493944 6.22545858,18.6225828 Z M23.9397824,11.3774172 C24.4851827,12.5629366 25.2945498,11.8712542 25.1477377,11.3775272 C23.4613346,7.02134842 19.5918543,4 15.0879805,4 C10.5934634,4 6.73070662,7.03400359 5.03876195,11.3756954 C4.89822806,11.7472459 5.15959344,12.1164342 5.50470074,12.1040108 C5.70578511,12.096772 10.7831381,11.1761773 10.7831381,11.1761773 C11.1617711,11.0599653 11.2105369,10.6592273 11.1617711,10.5073878 C11.1347759,10.3271958 10.9556549,10.0496781 10.5837154,10.0496781 C10.5837154,10.0496781 9.23824799,10.283411 6.54731326,10.7508768 C6.56017322,10.7260575 6.56984091,10.7074616 6.57631631,10.6950891 C8.32134452,7.36089259 11.5303869,5.22958787 15.0879805,5.22958787 C18.8990186,5.22958787 22.2996687,7.65060561 23.9397824,11.3774172 Z" id="Combined-Shape"></path>
        </g>
    </g>
</svg>

<svg width="30" height="30" xmlns="http://www.w3.org/2000/svg"><defs><linearGradient x1="0%" y1="100%" y2="0%" id="a"><stop stop-color="#6673B4" offset="0%"/><stop stop-color="#9EAEFF" offset="100%"/></linearGradient></defs><path d="M15 30C6.716 30 0 23.284 0 15 0 6.716 6.716 0 15 0c8.284 0 15 6.716 15 15 0 8.284-6.716 15-15 15zM6.225 18.623c-.545-1.186-1.354-.494-1.207 0C6.704 22.978 10.573 26 15.078 26c4.494 0 8.357-3.034 10.048-7.376.141-.371-.12-.74-.465-.728-.202.007-5.279.928-5.279.928-.379.116-.427.517-.379.669.027.18.207.457.579.457l4.036-.7a16.72 16.72 0 0 1-.03.055c-1.744 3.334-4.953 5.465-8.51 5.465-3.812 0-7.212-2.42-8.853-6.147zm17.715-7.246c.545 1.186 1.355.494 1.208 0C23.46 7.022 19.592 4 15.088 4c-4.495 0-8.357 3.034-10.05 7.376-.14.371.122.74.467.728.2-.007 5.278-.928 5.278-.928.379-.116.428-.517.379-.669a.566.566 0 0 0-.578-.457l-4.037.7.03-.055C8.32 7.361 11.53 5.23 15.087 5.23c3.811 0 7.212 2.42 8.852 6.147z" fill="url(#a)" fill-rule="evenodd"/></svg>
